assets/efishery/gudang-fill.svg

<svg width="24" height="25" viewBox="0 0 24 25" fill="none" xmlns="http://www.w3.org/2000/svg">
<path d="M12.2483 2.46288C11.9641 2.21029 11.5359 2.21029 11.2517 2.46288L2.25174 10.4629C1.94215 10.7381 1.91426 11.2121 2.18945 11.5217C2.46464 11.8313 2.93869 11.8592 3.24828 11.584L11.75 4.0269L20.2517 11.584C20.5613 11.8592 21.0354 11.8313 21.3106 11.5217C21.5858 11.2121 21.5579 10.7381 21.2483 10.4629L12.2483 2.46288Z" fill="#1D1D1D"/>
<path fill-rule="evenodd" clip-rule="evenodd" d="M4.26191 11.454L11.2619 5.45399C11.5428 5.21325 11.9572 5.21325 12.2381 5.45399L19.2381 11.454C19.4043 11.5965 19.5 11.8045 19.5 12.0234V21.2734H20.75C21.1642 21.2734 21.5 21.6092 21.5 22.0234C21.5 22.4377 21.1642 22.7734 20.75 22.7734H2.75001C2.33579 22.7734 2.00001 22.4377 2.00001 22.0234C2.00001 21.6092 2.33579 21.2734 2.75001 21.2734H4.00001V12.0234C4.00001 11.8045 4.09568 11.5965 4.26191 11.454ZM15 15.7734V17.5903C14.9265 17.5478 14.8411 17.5234 14.75 17.5234H8.75001C8.65894 17.5234 8.57355 17.5478 8.50001 17.5903V15.7734H15ZM12.75 18.5234V19.5234C12.75 19.7996 12.9739 20.0234 13.25 20.0234C13.5261 20.0234 13.75 19.7996 13.75 19.5234V18.5234H14.25V20.5234H12.25V18.5234H12.75ZM9.75001 19.5234V18.5234H9.25001V20.5234H11.25V18.5234H10.75V19.5234C10.75 19.7996 10.5261 20.0234 10.25 20.0234C9.97387 20.0234 9.75001 19.7996 9.75001 19.5234ZM15 14.2734V13.7734H8.50001V14.2734H15Z" fill="#1D1D1D"/>
</svg>

<svg viewBox="0 0 24 25" xmlns="http://www.w3.org/2000/svg">
  <path d="M12.248 2.463a.75.75 0 0 0-.996 0l-9 8a.75.75 0 1 0 .996 1.121l8.502-7.557 8.502 7.557a.75.75 0 0 0 .996-1.121l-9-8z"/>
  <path fill-rule="evenodd" clip-rule="evenodd" d="m4.262 11.454 7-6a.75.75 0 0 1 .976 0l7 6a.75.75 0 0 1 .262.57v9.25h1.25a.75.75 0 0 1 0 1.5h-18a.75.75 0 1 1 0-1.5H4v-9.25a.75.75 0 0 1 .262-.57zM15 15.774v1.816a.498.498 0 0 0-.25-.067h-6a.498.498 0 0 0-.25.067v-1.817H15zm-2.25 2.75v1a.5.5 0 1 0 1 0v-1h.5v2h-2v-2h.5zm-3 1v-1h-.5v2h2v-2h-.5v1a.5.5 0 1 1-1 0zm5.25-5.25v-.5H8.5v.5H15z"/>
</svg>
